X:14164
T:Reel Polo
C:Joseph Allard
M:2/4
L:1/16
K:G
FGAB c2e2|d2G2 BABc|d2ed c2A2|G2B2 B2G2|!
FGAB c2e2|d2G2 BABc|d2ed c2A2|F2A2 G4:|!
|:c2e2 gage|d2G2 BABc|d2ed c2A2|G2B2 BAB2|!
c2e2 gage|d2G2 BABc|d2ed c2A2|F2A2 G4:|!
